Newaita-dark/apps/64/ms-office.svg

<svg height="64pt" viewBox="0 0 64 64" width="64pt" xmlns="http://www.w3.org/2000/svg" xmlns:xlink="http://www.w3.org/1999/xlink"><linearGradient id="a"><stop offset="0" stop-opacity=".313726"/><stop offset=".222222" stop-opacity=".27451"/><stop offset="1" stop-opacity="0"/></linearGradient><radialGradient id="b" cx="450.908936" cy="189.579361" gradientTransform="matrix(.00000035 -.156265 -.281277 -.0000002 102.938256 127.190661)" gradientUnits="userSpaceOnUse" r="21.166656" xlink:href="#a"/><radialGradient id="c" cx="450.908936" cy="189.579361" gradientTransform="matrix(-.00000035 .156265 .281277 .0000002 -39.432179 -15.054962)" gradientUnits="userSpaceOnUse" r="21.166656" xlink:href="#a"/><radialGradient id="d" cx="450.908936" cy="189.579361" gradientTransform="matrix(-.00000035 -.156265 .281277 -.0000002 -39.432179 127.190661)" gradientUnits="userSpaceOnUse" r="21.166656" xlink:href="#a"/><radialGradient id="e" cx="450.908936" cy="189.579361" gradientTransform="matrix(.00000035 .156265 -.281277 .0000002 102.938252 -15.054963)" gradientUnits="userSpaceOnUse" r="21.166656" xlink:href="#a"/><linearGradient id="f" gradientTransform="matrix(.534402 0 0 .0998973 -99.399819 33.273418)" gradientUnits="userSpaceOnUse" x1="255.322968" x2="255.323044" y1="228.178589" y2="254.666656"><stop offset="0" stop-opacity=".27451"/><stop offset="1" stop-opacity="0"/></linearGradient><linearGradient id="g" gradientUnits="userSpaceOnUse" x1="41.01435500013" x2="41.01435500013" y1="56.067868" y2="5.79220799994"><stop offset="0" stop-color="#e0e0e0"/><stop offset="1" stop-color="#eee"/></linearGradient><linearGradient id="h"><stop offset="0" stop-color="#616161"/><stop offset="1" stop-color="#757575"/></linearGradient><linearGradient id="i" gradientUnits="userSpaceOnUse" x1="264.58333" x2="264.58333" xlink:href="#h" y1="233.500007" y2="-168.666664"/><linearGradient id="j" gradientUnits="userSpaceOnUse" x1="15.876524" x2="15.876524" xlink:href="#h" y1="56.067868" y2="5.79221000013"/><linearGradient id="k" gradientUnits="userSpaceOnUse" x1="47.629572" x2="47.629572" y1="24.976341875" y2="33.57612549998"><stop offset="0" stop-color="#e0e0e0"/><stop offset="1" stop-color="#bdbdbd"/></linearGradient><path d="m50.277344 56.066406h5.289062v-2.644531h-5.289062zm0 0" fill="url(#b)"/><path d="m13.230469 56.066406h-5.292969v2.648438h5.292969zm0 0" fill="url(#c)"/><path d="m13.230469 56.066406h-5.292969v-2.644531h5.292969zm0 0" fill="url(#d)"/><path d="m50.277344 56.066406h5.289062v2.648438h-5.289062zm0 0" fill="url(#e)"/><path d="m13.230469 55.011719h37.046875v3.703125h-37.046875zm0 0" fill="url(#f)"/><path d="m22.492188 5.792969h30.429687c1.460937 0 2.644531 1.183593 2.644531 2.644531v44.984375c0 1.460937-1.183594 2.644531-2.644531 2.644531h-30.429687c-1.460938 0-2.648438-1.183594-2.648438-2.644531v-44.984375c0-1.460938 1.1875-2.644531 2.648438-2.644531zm0 0" fill="url(#g)"/><path d="m55.566406 32.253906-9.992187 3.480469 3.480469 9.996094 6.511718-2.269531zm-11.660156 4.0625-9.996094 3.480469 3.484375 9.996094 9.992188-3.484375zm11.660156 9.011719-5.933594 2.066406 3.023438 8.671875h.265625c1.464844 0 2.644531-1.179687 2.644531-2.644531zm-7.597656 2.648437-9.996094 3.480469 1.605469 4.609375h11.210937zm0 0" fill="#222" fill-opacity=".156863"/><path d="m232.821517-105.166739h169.358827c5.843192 0 10.561491 4.749547 10.561491 10.592739v222.228778c0 5.843192-4.718299 10.592739-10.561491 10.592739h-169.358827c-5.843192 0-10.561492-4.749547-10.561492-10.592739v-222.228778c0-5.843192 4.7183-10.592739 10.561492-10.592739zm0 0" fill="url(#i)" stroke="#212121" stroke-linecap="round" stroke-linejoin="round" stroke-width="3" transform="matrix(.125012 0 0 .125012 0 26.877566)"/><path d="m22.492188 5.792969c-1.464844 0-2.648438 1.179687-2.648438 2.644531v.664062c0-1.46875 1.183594-2.648437 2.648438-2.648437h30.429687c1.464844 0 2.644531 1.179687 2.644531 2.648437v-.664062c0-1.464844-1.179687-2.644531-2.644531-2.644531zm0 0" fill="#fff"/><path d="m19.84375 52.761719v.660156c0 1.464844 1.183594 2.644531 2.648438 2.644531h30.429687c1.464844 0 2.644531-1.179687 2.644531-2.644531v-.660156c0 1.464843-1.179687 2.644531-2.644531 2.644531h-30.429687c-1.464844 0-2.648438-1.179688-2.648438-2.644531zm0 0" fill-opacity=".235294"/><path d="m22.492188 5.605469c-1.566407 0-2.835938 1.265625-2.835938 2.832031v44.984375c0 1.566406 1.269531 2.832031 2.835938 2.832031h30.429687c1.566406 0 2.832031-1.265625 2.832031-2.832031v-44.984375c0-1.566406-1.265625-2.832031-2.832031-2.832031zm0 .375h30.429687c1.363281 0 2.457031 1.09375 2.457031 2.457031v44.984375c0 1.367187-1.09375 2.457031-2.457031 2.457031h-30.429687c-1.367188 0-2.460938-1.089844-2.460938-2.457031v-44.984375c0-1.363281 1.09375-2.457031 2.460938-2.457031zm0 0" fill="#212121"/><path d="m10.585938 5.792969c-1.46875 0-2.648438 1.179687-2.648438 2.644531v44.984375c0 1.464844 1.179688 2.644531 2.648438 2.644531h13.230468v-50.273437zm0 0" fill="url(#j)"/><path d="m10.585938 5.792969c-1.46875 0-2.648438 1.179687-2.648438 2.644531v.664062c0-1.46875 1.179688-2.648437 2.648438-2.648437h12.566406v49.613281h.664062v-50.273437zm0 0" fill="#fff" fill-opacity=".392157"/><path d="m7.9375 52.761719v.660156c0 1.464844 1.179688 2.644531 2.648438 2.644531h13.230468v-.660156h-13.230468c-1.46875 0-2.648438-1.179688-2.648438-2.644531zm0 0" fill-opacity=".235294"/><path d="m10.585938 5.605469c-1.566407 0-2.835938 1.265625-2.835938 2.832031v44.984375c0 1.566406 1.269531 2.832031 2.835938 2.832031h13.230468c.101563 0 .1875-.082031.1875-.1875v-50.273437c0-.105469-.085937-.1875-.1875-.1875zm0 .375h13.042968v49.898437h-13.042968c-1.367188 0-2.460938-1.089844-2.460938-2.457031v-44.984375c0-1.363281 1.09375-2.457031 2.460938-2.457031zm0 0" fill="#212121"/><path d="m47.960938 24.976562c.546874 0 .992187.445313.992187.992188v6.613281c0 .550781-.445313.992188-.992187.992188-.546876 0-.992188-.441407-.992188-.992188v-6.613281c0-.546875.445312-.992188.992188-.992188zm0 0" fill="url(#k)"/><path d="m47.960938 24.976562c-.550782 0-.992188.441407-.992188.992188v.660156c0-.546875.441406-.992187.992188-.992187.550781 0 .992187.445312.992187.992187v-.660156c0-.550781-.441406-.992188-.992187-.992188zm0 0" fill="#fff" fill-opacity=".392157"/><path d="m46.96875 32.582031v.992188c0 .550781.441406.996093.992188.996093.550781 0 .992187-.445312.992187-.996093v-.992188c0 .550781-.441406.992188-.992187.992188-.550782 0-.992188-.441407-.992188-.992188zm0 0" fill-opacity=".235294"/><path d="m383.650863-15.206579c4.374582 0 7.936742 3.56216 7.936742 7.936742v52.901198c0 4.405829-3.56216 7.936742-7.936742 7.936742s-7.936742-3.530913-7.936742-7.936742v-52.901198c0-4.374582 3.56216-7.936742 7.936742-7.936742zm0 0" fill="none" stroke="#212121" stroke-linecap="round" stroke-linejoin="round" stroke-width="3" transform="matrix(.125012 0 0 .125012 0 26.877566)"/></svg>

<?xml version="1.0" encoding="UTF-8"?>
<svg xmlns="http://www.w3.org/2000/svg" xmlns:xlink="http://www.w3.org/1999/xlink" width="64pt" height="64pt" viewBox="0 0 64 64" version="1.1">
<defs>
<radialGradient id="radial0" gradientUnits="userSpaceOnUse" cx="450.908936" cy="189.579361" fx="450.908936" fy="189.579361" r="21.166656" gradientTransform="matrix(0.000000348341,-0.156265,-0.281277,-0.000000203077,102.938256,127.190661)">
<stop offset="0" style="stop-color:rgb(0%,0%,0%);stop-opacity:0.313726;"/>
<stop offset="0.222222" style="stop-color:rgb(0%,0%,0%);stop-opacity:0.27451;"/>
<stop offset="1" style="stop-color:rgb(0%,0%,0%);stop-opacity:0;"/>
</radialGradient>
<radialGradient id="radial1" gradientUnits="userSpaceOnUse" cx="450.908936" cy="189.579361" fx="450.908936" fy="189.579361" r="21.166656" gradientTransform="matrix(-0.000000348341,0.156265,0.281277,0.000000203077,-39.432179,-15.054962)">
<stop offset="0" style="stop-color:rgb(0%,0%,0%);stop-opacity:0.313726;"/>
<stop offset="0.222222" style="stop-color:rgb(0%,0%,0%);stop-opacity:0.27451;"/>
<stop offset="1" style="stop-color:rgb(0%,0%,0%);stop-opacity:0;"/>
</radialGradient>
<radialGradient id="radial2" gradientUnits="userSpaceOnUse" cx="450.908936" cy="189.579361" fx="450.908936" fy="189.579361" r="21.166656" gradientTransform="matrix(-0.000000348341,-0.156265,0.281277,-0.000000203077,-39.432179,127.190661)">
<stop offset="0" style="stop-color:rgb(0%,0%,0%);stop-opacity:0.313726;"/>
<stop offset="0.222222" style="stop-color:rgb(0%,0%,0%);stop-opacity:0.27451;"/>
<stop offset="1" style="stop-color:rgb(0%,0%,0%);stop-opacity:0;"/>
</radialGradient>
<radialGradient id="radial3" gradientUnits="userSpaceOnUse" cx="450.908936" cy="189.579361" fx="450.908936" fy="189.579361" r="21.166656" gradientTransform="matrix(0.000000348341,0.156265,-0.281277,0.000000203077,102.938252,-15.054963)">
<stop offset="0" style="stop-color:rgb(0%,0%,0%);stop-opacity:0.313726;"/>
<stop offset="0.222222" style="stop-color:rgb(0%,0%,0%);stop-opacity:0.27451;"/>
<stop offset="1" style="stop-color:rgb(0%,0%,0%);stop-opacity:0;"/>
</radialGradient>
<linearGradient id="linear0" gradientUnits="userSpaceOnUse" x1="255.322968" y1="228.178589" x2="255.323044" y2="254.666656" gradientTransform="matrix(0.534402,0,0,0.0998973,-99.399819,33.273418)">
<stop offset="0" style="stop-color:rgb(0%,0%,0%);stop-opacity:0.27451;"/>
<stop offset="1" style="stop-color:rgb(0%,0%,0%);stop-opacity:0;"/>
</linearGradient>
<linearGradient id="linear1" gradientUnits="userSpaceOnUse" x1="328.083344" y1="233.5" x2="328.083344" y2="-168.666672" gradientTransform="matrix(0.125012,0,0,0.125012,0,26.877566)">
<stop offset="0" style="stop-color:rgb(87.843138%,87.843138%,87.843138%);stop-opacity:1;"/>
<stop offset="1" style="stop-color:rgb(93.333334%,93.333334%,93.333334%);stop-opacity:1;"/>
</linearGradient>
<linearGradient id="linear2" gradientUnits="userSpaceOnUse" x1="275.166687" y1="201.750015" x2="275.166687" y2="-200.416656" gradientTransform="matrix(1,0,0,1,-10.583357,31.749992)">
<stop offset="0" style="stop-color:rgb(38.039216%,38.039216%,38.039216%);stop-opacity:1;"/>
<stop offset="1" style="stop-color:rgb(45.882353%,45.882353%,45.882353%);stop-opacity:1;"/>
</linearGradient>
<linearGradient id="linear3" gradientUnits="userSpaceOnUse" x1="127" y1="233.5" x2="127" y2="-168.666656" gradientTransform="matrix(0.125012,0,0,0.125012,-0.000000416706,26.877566)">
<stop offset="0" style="stop-color:rgb(38.039216%,38.039216%,38.039216%);stop-opacity:1;"/>
<stop offset="1" style="stop-color:rgb(45.882353%,45.882353%,45.882353%);stop-opacity:1;"/>
</linearGradient>
<linearGradient id="linear4" gradientUnits="userSpaceOnUse" x1="381" y1="-15.208333" x2="381" y2="53.583332" gradientTransform="matrix(0.125012,0,0,0.125012,0,26.877566)">
<stop offset="0" style="stop-color:rgb(87.843138%,87.843138%,87.843138%);stop-opacity:1;"/>
<stop offset="1" style="stop-color:rgb(74.117649%,74.117649%,74.117649%);stop-opacity:1;"/>
</linearGradient>
</defs>
<g id="surface1">
<path style=" stroke:none;fill-rule:nonzero;fill:url(#radial0);" d="M 50.277344 56.066406 L 55.566406 56.066406 L 55.566406 53.421875 L 50.277344 53.421875 Z M 50.277344 56.066406 "/>
<path style=" stroke:none;fill-rule:nonzero;fill:url(#radial1);" d="M 13.230469 56.066406 L 7.9375 56.066406 L 7.9375 58.714844 L 13.230469 58.714844 Z M 13.230469 56.066406 "/>
<path style=" stroke:none;fill-rule:nonzero;fill:url(#radial2);" d="M 13.230469 56.066406 L 7.9375 56.066406 L 7.9375 53.421875 L 13.230469 53.421875 Z M 13.230469 56.066406 "/>
<path style=" stroke:none;fill-rule:nonzero;fill:url(#radial3);" d="M 50.277344 56.066406 L 55.566406 56.066406 L 55.566406 58.714844 L 50.277344 58.714844 Z M 50.277344 56.066406 "/>
<path style=" stroke:none;fill-rule:nonzero;fill:url(#linear0);" d="M 13.230469 55.011719 L 50.277344 55.011719 L 50.277344 58.714844 L 13.230469 58.714844 Z M 13.230469 55.011719 "/>
<path style=" stroke:none;fill-rule:nonzero;fill:url(#linear1);" d="M 22.492188 5.792969 L 52.921875 5.792969 C 54.382812 5.792969 55.566406 6.976562 55.566406 8.4375 L 55.566406 53.421875 C 55.566406 54.882812 54.382812 56.066406 52.921875 56.066406 L 22.492188 56.066406 C 21.03125 56.066406 19.84375 54.882812 19.84375 53.421875 L 19.84375 8.4375 C 19.84375 6.976562 21.03125 5.792969 22.492188 5.792969 Z M 22.492188 5.792969 "/>
<path style=" stroke:none;fill-rule:nonzero;fill:rgb(13.333334%,13.333334%,13.333334%);fill-opacity:0.156863;" d="M 55.566406 32.253906 L 45.574219 35.734375 L 49.054688 45.730469 L 55.566406 43.460938 Z M 43.90625 36.316406 L 33.910156 39.796875 L 37.394531 49.792969 L 47.386719 46.308594 Z M 55.566406 45.328125 L 49.632812 47.394531 L 52.65625 56.066406 L 52.921875 56.066406 C 54.386719 56.066406 55.566406 54.886719 55.566406 53.421875 Z M 47.96875 47.976562 L 37.972656 51.457031 L 39.578125 56.066406 L 50.789062 56.066406 Z M 47.96875 47.976562 "/>
<path style="fill-rule:nonzero;fill:url(#linear2);stroke-width:3;stroke-linecap:round;stroke-linejoin:round;stroke:rgb(12.941177%,12.941177%,12.941177%);stroke-opacity:1;stroke-miterlimit:4;" d="M 232.821517 -105.166739 L 402.180344 -105.166739 C 408.023536 -105.166739 412.741835 -100.417192 412.741835 -94.574 L 412.741835 127.654778 C 412.741835 133.49797 408.023536 138.247517 402.180344 138.247517 L 232.821517 138.247517 C 226.978325 138.247517 222.260025 133.49797 222.260025 127.654778 L 222.260025 -94.574 C 222.260025 -100.417192 226.978325 -105.166739 232.821517 -105.166739 Z M 232.821517 -105.166739 " transform="matrix(0.125012,0,0,0.125012,0,26.877566)"/>
<path style=" stroke:none;fill-rule:nonzero;fill:rgb(100%,100%,100%);fill-opacity:1;" d="M 22.492188 5.792969 C 21.027344 5.792969 19.84375 6.972656 19.84375 8.4375 L 19.84375 9.101562 C 19.84375 7.632812 21.027344 6.453125 22.492188 6.453125 L 52.921875 6.453125 C 54.386719 6.453125 55.566406 7.632812 55.566406 9.101562 L 55.566406 8.4375 C 55.566406 6.972656 54.386719 5.792969 52.921875 5.792969 Z M 22.492188 5.792969 "/>
<path style=" stroke:none;fill-rule:nonzero;fill:rgb(0%,0%,0%);fill-opacity:0.235294;" d="M 19.84375 52.761719 L 19.84375 53.421875 C 19.84375 54.886719 21.027344 56.066406 22.492188 56.066406 L 52.921875 56.066406 C 54.386719 56.066406 55.566406 54.886719 55.566406 53.421875 L 55.566406 52.761719 C 55.566406 54.226562 54.386719 55.40625 52.921875 55.40625 L 22.492188 55.40625 C 21.027344 55.40625 19.84375 54.226562 19.84375 52.761719 Z M 19.84375 52.761719 "/>
<path style=" stroke:none;fill-rule:nonzero;fill:rgb(12.941177%,12.941177%,12.941177%);fill-opacity:1;" d="M 22.492188 5.605469 C 20.925781 5.605469 19.65625 6.871094 19.65625 8.4375 L 19.65625 53.421875 C 19.65625 54.988281 20.925781 56.253906 22.492188 56.253906 L 52.921875 56.253906 C 54.488281 56.253906 55.753906 54.988281 55.753906 53.421875 L 55.753906 8.4375 C 55.753906 6.871094 54.488281 5.605469 52.921875 5.605469 Z M 22.492188 5.980469 L 52.921875 5.980469 C 54.285156 5.980469 55.378906 7.074219 55.378906 8.4375 L 55.378906 53.421875 C 55.378906 54.789062 54.285156 55.878906 52.921875 55.878906 L 22.492188 55.878906 C 21.125 55.878906 20.03125 54.789062 20.03125 53.421875 L 20.03125 8.4375 C 20.03125 7.074219 21.125 5.980469 22.492188 5.980469 Z M 22.492188 5.980469 "/>
<path style=" stroke:none;fill-rule:nonzero;fill:url(#linear3);" d="M 10.585938 5.792969 C 9.117188 5.792969 7.9375 6.972656 7.9375 8.4375 L 7.9375 53.421875 C 7.9375 54.886719 9.117188 56.066406 10.585938 56.066406 L 23.816406 56.066406 L 23.816406 5.792969 Z M 10.585938 5.792969 "/>
<path style=" stroke:none;fill-rule:nonzero;fill:rgb(100%,100%,100%);fill-opacity:0.392157;" d="M 10.585938 5.792969 C 9.117188 5.792969 7.9375 6.972656 7.9375 8.4375 L 7.9375 9.101562 C 7.9375 7.632812 9.117188 6.453125 10.585938 6.453125 L 23.152344 6.453125 L 23.152344 56.066406 L 23.816406 56.066406 L 23.816406 5.792969 Z M 10.585938 5.792969 "/>
<path style=" stroke:none;fill-rule:nonzero;fill:rgb(0%,0%,0%);fill-opacity:0.235294;" d="M 7.9375 52.761719 L 7.9375 53.421875 C 7.9375 54.886719 9.117188 56.066406 10.585938 56.066406 L 23.816406 56.066406 L 23.816406 55.40625 L 10.585938 55.40625 C 9.117188 55.40625 7.9375 54.226562 7.9375 52.761719 Z M 7.9375 52.761719 "/>
<path style=" stroke:none;fill-rule:nonzero;fill:rgb(12.941177%,12.941177%,12.941177%);fill-opacity:1;" d="M 10.585938 5.605469 C 9.019531 5.605469 7.75 6.871094 7.75 8.4375 L 7.75 53.421875 C 7.75 54.988281 9.019531 56.253906 10.585938 56.253906 L 23.816406 56.253906 C 23.917969 56.253906 24.003906 56.171875 24.003906 56.066406 L 24.003906 5.792969 C 24.003906 5.6875 23.917969 5.605469 23.816406 5.605469 Z M 10.585938 5.980469 L 23.628906 5.980469 L 23.628906 55.878906 L 10.585938 55.878906 C 9.21875 55.878906 8.125 54.789062 8.125 53.421875 L 8.125 8.4375 C 8.125 7.074219 9.21875 5.980469 10.585938 5.980469 Z M 10.585938 5.980469 "/>
<path style=" stroke:none;fill-rule:nonzero;fill:url(#linear4);" d="M 47.960938 24.976562 C 48.507812 24.976562 48.953125 25.421875 48.953125 25.96875 L 48.953125 32.582031 C 48.953125 33.132812 48.507812 33.574219 47.960938 33.574219 C 47.414062 33.574219 46.96875 33.132812 46.96875 32.582031 L 46.96875 25.96875 C 46.96875 25.421875 47.414062 24.976562 47.960938 24.976562 Z M 47.960938 24.976562 "/>
<path style=" stroke:none;fill-rule:nonzero;fill:rgb(100%,100%,100%);fill-opacity:0.392157;" d="M 47.960938 24.976562 C 47.410156 24.976562 46.96875 25.417969 46.96875 25.96875 L 46.96875 26.628906 C 46.96875 26.082031 47.410156 25.636719 47.960938 25.636719 C 48.511719 25.636719 48.953125 26.082031 48.953125 26.628906 L 48.953125 25.96875 C 48.953125 25.417969 48.511719 24.976562 47.960938 24.976562 Z M 47.960938 24.976562 "/>
<path style=" stroke:none;fill-rule:nonzero;fill:rgb(0%,0%,0%);fill-opacity:0.235294;" d="M 46.96875 32.582031 L 46.96875 33.574219 C 46.96875 34.125 47.410156 34.570312 47.960938 34.570312 C 48.511719 34.570312 48.953125 34.125 48.953125 33.574219 L 48.953125 32.582031 C 48.953125 33.132812 48.511719 33.574219 47.960938 33.574219 C 47.410156 33.574219 46.96875 33.132812 46.96875 32.582031 Z M 46.96875 32.582031 "/>
<path style="fill:none;stroke-width:3;stroke-linecap:round;stroke-linejoin:round;stroke:rgb(12.941177%,12.941177%,12.941177%);stroke-opacity:1;stroke-miterlimit:4;" d="M 383.650863 -15.206579 C 388.025445 -15.206579 391.587605 -11.644419 391.587605 -7.269837 L 391.587605 45.631361 C 391.587605 50.03719 388.025445 53.568103 383.650863 53.568103 C 379.276281 53.568103 375.714121 50.03719 375.714121 45.631361 L 375.714121 -7.269837 C 375.714121 -11.644419 379.276281 -15.206579 383.650863 -15.206579 Z M 383.650863 -15.206579 " transform="matrix(0.125012,0,0,0.125012,0,26.877566)"/>
</g>
</svg>
